public/logos/GR.svg

<?xml version="1.0" encoding="UTF-8"?>
<svg xmlns="http://www.w3.org/2000/svg" xmlns:xlink="http://www.w3.org/1999/xlink" width="176pt" height="51.28pt" viewBox="0 0 176 51.28" version="1.1">
<defs>
<clipPath id="clip1">
  <path d="M 88 11 L 118 11 L 118 51.28125 L 88 51.28125 Z M 88 11 "/>
</clipPath>
<clipPath id="clip2">
  <path d="M 145 12 L 176 12 L 176 51.28125 L 145 51.28125 Z M 145 12 "/>
</clipPath>
</defs>
<g id="surface1">
<path style=" stroke:none;fill-rule:nonzero;fill:rgb(11.047363%,18.421936%,30.664062%);fill-opacity:1;" d="M 11.621094 28.523438 C 9.570312 29.109375 8.59375 29.890625 8.59375 31.648438 C 8.484375 33.371094 9.789062 34.859375 11.511719 34.96875 C 11.648438 34.976562 11.78125 34.976562 11.914062 34.96875 C 15.039062 34.96875 17.191406 33.015625 17.191406 30.085938 L 17.191406 26.863281 C 15.722656 27.839844 13.671875 27.9375 11.621094 28.523438 M 17.972656 39.949219 C 17.753906 39.015625 17.589844 38.070312 17.484375 37.117188 C 15.214844 39.5625 12.027344 40.941406 8.691406 40.925781 C 3.222656 40.925781 0 37.703125 0 32.722656 C 0 28.035156 2.441406 25.203125 7.324219 24.128906 C 13.773438 22.566406 17.191406 23.054688 17.191406 20.90625 L 17.191406 20.222656 C 17.191406 18.5625 15.917969 17.78125 13.578125 17.78125 C 10.9375 17.78125 9.472656 18.855469 9.082031 20.90625 L 0.683594 20.90625 C 1.5625 14.554688 5.859375 11.625 13.773438 11.625 C 18.65625 11.625 22.074219 12.796875 23.929688 15.238281 C 25.6875 17.488281 25.785156 20.320312 25.785156 24.128906 L 25.785156 34.675781 C 25.785156 37.117188 26.175781 38.582031 27.152344 39.070312 L 27.152344 40.144531 L 17.972656 40.144531 L 17.972656 39.949219 "/>
<path style=" stroke:none;fill-rule:nonzero;fill:rgb(11.047363%,18.421936%,30.664062%);fill-opacity:1;" d="M 55.183594 39.949219 L 46.296875 39.949219 L 46.296875 36.140625 C 44.496094 39.03125 41.296875 40.742188 37.894531 40.632812 C 31.742188 40.632812 28.617188 37.507812 28.617188 31.257812 L 28.617188 12.113281 L 37.699219 12.113281 L 37.699219 27.644531 C 37.699219 31.746094 38.480469 33.699219 41.507812 33.699219 C 44.832031 33.699219 46.101562 31.550781 46.101562 26.960938 L 46.101562 12.113281 L 55.183594 12.113281 L 55.183594 39.949219 "/>
<path style=" stroke:none;fill-rule:nonzero;fill:rgb(11.047363%,18.421936%,30.664062%);fill-opacity:1;" d="M 57.527344 12.113281 L 66.21875 12.113281 L 66.21875 17 C 68.171875 13.1875 70.90625 11.527344 75.402344 11.429688 L 75.402344 20.417969 C 74.65625 20.308594 73.90625 20.242188 73.15625 20.222656 C 70.417969 20.222656 68.5625 21.003906 67.488281 22.761719 C 66.609375 24.128906 66.511719 26.667969 66.511719 30.476562 L 66.511719 39.753906 L 57.429688 39.753906 L 57.429688 12.113281 L 57.527344 12.113281 "/>
<path style=" stroke:none;fill-rule:nonzero;fill:rgb(11.047363%,18.421936%,30.664062%);fill-opacity:1;" d="M 77.257812 12.113281 L 86.339844 12.113281 L 86.339844 39.851562 L 77.257812 39.851562 L 77.257812 12.113281 "/>
<g clip-path="url(#clip1)" clip-rule="nonzero">
<path style=" stroke:none;fill-rule:nonzero;fill:rgb(11.047363%,18.421936%,30.664062%);fill-opacity:1;" d="M 102.847656 33.015625 C 106.265625 33.015625 108.316406 30.476562 108.316406 25.886719 C 108.316406 21.003906 106.460938 18.460938 103.039062 18.460938 C 99.621094 18.460938 97.667969 21.003906 97.667969 25.886719 C 97.667969 30.378906 99.71875 33.015625 102.847656 33.015625 M 98.941406 42.488281 C 99.425781 44.148438 100.796875 44.734375 103.140625 44.734375 C 107.339844 44.734375 108.511719 42.878906 108.511719 38.679688 L 108.511719 35.75 C 106.683594 38.707031 103.386719 40.429688 99.914062 40.242188 C 93.273438 40.242188 88.292969 34.675781 88.292969 25.984375 C 88.292969 17.292969 93.175781 11.429688 100.015625 11.429688 C 103.53125 11.265625 106.875 12.976562 108.804688 15.921875 L 108.804688 12.210938 L 117.300781 12.210938 L 117.300781 35.164062 C 117.300781 39.949219 117.203125 43.464844 115.640625 46.003906 C 113.492188 49.328125 109.292969 51.28125 103.433594 51.28125 C 95.03125 51.28125 90.734375 48.546875 89.855469 42.488281 C 92.800781 42.488281 96.230469 42.488281 98.941406 42.488281 "/>
</g>
<path style=" stroke:none;fill-rule:nonzero;fill:rgb(11.047363%,18.421936%,30.664062%);fill-opacity:1;" d="M 119.839844 12.113281 L 128.730469 12.113281 L 128.730469 15.921875 C 130.457031 12.960938 133.703125 11.226562 137.128906 11.429688 C 143.867188 11.429688 146.40625 14.75 146.40625 21.882812 L 146.40625 39.949219 L 137.324219 39.949219 L 137.324219 25.984375 C 137.324219 20.90625 137.128906 18.367188 133.515625 18.367188 C 130.191406 18.367188 128.925781 20.515625 128.925781 25.105469 L 128.925781 39.949219 L 119.839844 39.949219 L 119.839844 12.113281 "/>
<g clip-path="url(#clip2)" clip-rule="nonzero">
<path style=" stroke:none;fill-rule:nonzero;fill:rgb(11.047363%,18.421936%,30.664062%);fill-opacity:1;" d="M 160.179688 50.5 C 158.421875 51.28125 155.976562 51.28125 152.949219 51.28125 L 150.507812 51.28125 L 150.507812 44.050781 L 152.265625 44.050781 C 155.292969 44.050781 156.660156 43.5625 156.660156 41.21875 C 156.449219 39.660156 155.988281 38.140625 155.292969 36.726562 L 145.917969 12.113281 L 155.683594 12.113281 L 160.960938 31.0625 L 166.332031 12.113281 L 176 12.113281 L 164.863281 42.976562 C 163.398438 46.980469 162.324219 49.523438 160.179688 50.5 "/>
</g>
<path style=" stroke:none;fill-rule:nonzero;fill:rgb(67.608643%,11.228943%,14.035034%);fill-opacity:1;" d="M 86.828125 4.984375 C 86.828125 7.734375 84.597656 9.964844 81.847656 9.964844 C 79.09375 9.964844 76.867188 7.734375 76.867188 4.984375 C 76.867188 2.234375 79.09375 0.00390625 81.847656 0.00390625 C 84.542969 -0.0507812 86.773438 2.089844 86.828125 4.789062 C 86.828125 4.851562 86.828125 4.917969 86.828125 4.984375 "/>
</g>
</svg>

<svg xmlns="http://www.w3.org/2000/svg" width="176pt" height="68.373" viewBox="0 0 176 51.28"><defs><clipPath id="a"><path d="M88 11h30v40.281H88Zm0 0"/></clipPath><clipPath id="b"><path d="M145 12h31v39.281h-31Zm0 0"/></clipPath></defs><path d="M11.621 28.523c-2.05.586-3.027 1.368-3.027 3.125a3.126 3.126 0 0 0 3.32 3.32c3.125 0 5.277-1.952 5.277-4.882v-3.223c-1.468.977-3.52 1.075-5.57 1.66m6.352 11.426a24 24 0 0 1-.489-2.832 11.92 11.92 0 0 1-8.793 3.809C3.223 40.926 0 37.703 0 32.723c0-4.688 2.441-7.52 7.324-8.594 6.45-1.563 9.867-1.074 9.867-3.223v-.683c0-1.66-1.273-2.442-3.613-2.442-2.64 0-4.105 1.074-4.496 3.125H.684c.879-6.351 5.175-9.281 13.09-9.281 4.882 0 8.3 1.172 10.156 3.613 1.758 2.25 1.855 5.082 1.855 8.89v10.548c0 2.441.39 3.906 1.367 4.394v1.075h-9.18zM55.184 39.95h-8.887v-3.81c-1.8 2.891-5 4.602-8.402 4.493-6.153 0-9.278-3.125-9.278-9.375V12.113H37.7v15.532c0 4.101.781 6.054 3.809 6.054 3.324 0 4.594-2.148 4.594-6.738V12.113h9.082zM57.527 12.113h8.692V17c1.953-3.812 4.687-5.473 9.183-5.57v8.988a19 19 0 0 0-2.246-.195c-2.738 0-4.594.78-5.668 2.539-.879 1.367-.976 3.906-.976 7.715v9.277H57.43v-27.64zM77.258 12.113h9.082v27.739h-9.082z" style="stroke:none;fill-rule:nonzero;fill:#1c2f4e;fill-opacity:1"/><g clip-path="url(#a)"><path d="M102.848 33.016c3.418 0 5.468-2.54 5.468-7.13 0-4.882-1.855-7.425-5.277-7.425-3.418 0-5.371 2.543-5.371 7.426 0 4.492 2.05 7.129 5.18 7.129m-3.907 9.472c.485 1.66 1.856 2.246 4.2 2.246 4.199 0 5.37-1.855 5.37-6.054v-2.93a9.5 9.5 0 0 1-8.597 4.492c-6.64 0-11.621-5.566-11.621-14.258s4.883-14.554 11.723-14.554a9.96 9.96 0 0 1 8.789 4.492V12.21h8.496v22.953c0 4.785-.098 8.3-1.66 10.84-2.149 3.324-6.348 5.277-12.207 5.277-8.403 0-12.7-2.734-13.579-8.793z" style="stroke:none;fill-rule:nonzero;fill:#1c2f4e;fill-opacity:1"/></g><path d="M119.84 12.113h8.89v3.809a9.09 9.09 0 0 1 8.399-4.492c6.738 0 9.277 3.32 9.277 10.453v18.066h-9.082V25.984c0-5.078-.195-7.617-3.808-7.617-3.325 0-4.59 2.149-4.59 6.738V39.95h-9.086z" style="stroke:none;fill-rule:nonzero;fill:#1c2f4e;fill-opacity:1"/><g clip-path="url(#b)"><path d="M160.18 50.5c-1.758.781-4.203.781-7.23.781h-2.442v-7.23h1.758c3.027 0 4.394-.489 4.394-2.832a14.6 14.6 0 0 0-1.367-4.492l-9.375-24.614h9.766l5.277 18.95 5.371-18.95H176l-11.137 30.864c-1.465 4.003-2.539 6.546-4.683 7.523" style="stroke:none;fill-rule:nonzero;fill:#1c2f4e;fill-opacity:1"/></g><path d="M86.828 4.984a4.981 4.981 0 1 1-4.98-4.98 4.883 4.883 0 0 1 4.98 4.785z" style="stroke:none;fill-rule:nonzero;fill:#ac1d24;fill-opacity:1"/></svg>
